assets/images/icons/src/map-o.svg

<?xml version="1.0" encoding="utf-8"?>
<!-- Generated by IcoMoon.io -->
<!DOCTYPE svg PUBLIC "-//W3C//DTD SVG 1.1//EN" "http://www.w3.org/Graphics/SVG/1.1/DTD/svg11.dtd">
<svg version="1.1" xmlns="http://www.w3.org/2000/svg" xmlns:xlink="http://www.w3.org/1999/xlink" width="16" height="14" viewBox="0 0 16 14">
<path fill="#444444" d="M15.781 0.086q0.219 0.156 0.219 0.414v11q0 0.156-0.086 0.281t-0.227 0.18l-5 2q-0.187 0.086-0.375 0l-4.813-1.922-4.813 1.922q-0.078 0.039-0.187 0.039-0.148 0-0.281-0.086-0.219-0.156-0.219-0.414v-11q0-0.156 0.086-0.281t0.227-0.18l5-2q0.187-0.086 0.375 0l4.813 1.922 4.813-1.922q0.25-0.102 0.469 0.047zM5.75 1.141v9.922l4.5 1.797v-9.922zM1 2.836v9.922l4.25-1.695v-9.922zM15 11.164v-9.922l-4.25 1.695v9.922z"></path>
</svg>

<svg xmlns="http://www.w3.org/2000/svg" width="16" height="14" viewBox="0 0 16 14"><path fill="#444" d="M15.781.086Q16 .242 16 .5v11q0 .156-.086.281t-.227.18l-5 2q-.187.086-.375 0l-4.813-1.922-4.813 1.922Q.608 14 .499 14q-.148 0-.281-.086-.219-.156-.219-.414v-11q0-.156.086-.281t.227-.18l5-2q.187-.086.375 0L10.5 1.961 15.313.039q.25-.102.469.047zM5.75 1.141v9.922l4.5 1.797V2.938zM1 2.836v9.922l4.25-1.695V1.141zm14 8.328V1.242l-4.25 1.695v9.922z"/></svg>
